X: 2
T: Gan Ainm
M: 12/8
L: 1/8
R: slide
K: D Major
|: F |\
A2 d dcd B2 A F2 E | D2 F A2 F G2 F E3 | 
A2 d dcd B2 A F2 A | B2 e e2 d c2 B A2 :|
|: f |\
f2 d dcd g2 e ede | f2 d dcd e2 A A2 e |
f2 d dcd g2 e ede | fgf efe d3 d2 :|
